appearance/.icons/Tela-black/scalable/apps/com.github.louis77.tuner.svg

<svg xmlns="http://www.w3.org/2000/svg" width="64" height="64" image-rendering="optimizeSpeed"><rect width="52" height="52" x="6" y="6" fill="#dd3f80" rx="9.287" ry="9.287"/><path fill="#f9f9f9" d="M52.067 30H11.884C10.32 30 9 28.6 9 26.823v-7.646C9 17.454 10.27 16 11.884 16h40.232C53.68 16 55 17.4 55 19.177v7.7C54.951 28.6 53.68 30 52.067 30" class="st7"/><g fill="none" stroke-miterlimit="10"><path stroke="#abacae" stroke-width=".87" d="M12.035 18.777v8.279m3.408-6.818v5.357m2.922-5.357v5.357m3.409-6.818v8.279m3.409-6.818v5.357m3.408-5.357v5.357M32 18.777v8.279m3.409-6.818v5.357m3.408-5.357v5.357m3.409-6.818v8.279m9.739-8.279v8.279m-6.33-6.818v5.357m2.922-5.357v5.357" class="st8"/><path stroke="#de3e80" stroke-width="1.067" d="M27.13 16.83v12.66" class="st9"/></g><circle cx="32" cy="42" r="8" fill="#f2f2f2" class="st10"/><rect width="2" height="5" x="31" y="35" opacity=".15" rx="1" ry="1" style="paint-order:stroke fill markers"/><rect width="12" height="2" x="8" y="36" fill="#1a1a1a" rx="1" ry="1" style="paint-order:stroke fill markers"/><rect width="12" height="2" x="8" y="46" fill="#1a1a1a" rx="1" ry="1" style="paint-order:stroke fill markers"/><rect width="10" height="2" x="8" y="41" fill="#1a1a1a" rx="1" ry="1" style="paint-order:stroke fill markers"/><rect width="12" height="2" x="-56" y="36" fill="#1a1a1a" rx="1" ry="1" style="paint-order:stroke fill markers" transform="scale(-1 1)"/><rect width="12" height="2" x="-56" y="46" fill="#1a1a1a" rx="1" ry="1" style="paint-order:stroke fill markers" transform="scale(-1 1)"/><rect width="10" height="2" x="-56" y="41" fill="#1a1a1a" rx="1" ry="1" style="paint-order:stroke fill markers" transform="scale(-1 1)"/></svg>

<svg xmlns="http://www.w3.org/2000/svg" width="64" height="64" image-rendering="optimizeSpeed"><rect width="52" height="52" x="6" y="6" fill="#dd3f80" rx="9.287" ry="9.287"/><path fill="#f9f9f9" d="M52.067 30H11.884C10.32 30 9 28.6 9 26.823v-7.646C9 17.454 10.27 16 11.884 16h40.232C53.68 16 55 17.4 55 19.177v7.7C54.951 28.6 53.68 30 52.067 30z" class="st7"/><g fill="none" stroke-miterlimit="10"><g stroke="#abacae" stroke-width=".87"><path d="M12.035 18.777v8.279M15.443 20.238v5.357M18.365 20.238v5.357M21.774 18.777v8.279M25.183 20.238v5.357M28.591 20.238v5.357M32 18.777v8.279M35.409 20.238v5.357M38.817 20.238v5.357M42.226 18.777v8.279M51.965 18.777v8.279M45.635 20.238v5.357M48.557 20.238v5.357" class="st8"/></g><path stroke="#de3e80" stroke-width="1.067" d="M27.13 16.83v12.66" class="st9"/></g><circle cx="32" cy="42" r="8" fill="#f2f2f2" class="st10"/><rect width="2" height="5" x="31" y="35" opacity=".15" rx="1" ry="1" style="paint-order:stroke fill markers"/><rect width="12" height="2" x="8" y="36" fill="#1a1a1a" rx="1" ry="1" style="paint-order:stroke fill markers"/><rect width="12" height="2" x="8" y="46" fill="#1a1a1a" rx="1" ry="1" style="paint-order:stroke fill markers"/><rect width="10" height="2" x="8" y="41" fill="#1a1a1a" rx="1" ry="1" style="paint-order:stroke fill markers"/><rect width="12" height="2" x="-56" y="36" fill="#1a1a1a" rx="1" ry="1" style="paint-order:stroke fill markers" transform="scale(-1 1)"/><rect width="12" height="2" x="-56" y="46" fill="#1a1a1a" rx="1" ry="1" style="paint-order:stroke fill markers" transform="scale(-1 1)"/><rect width="10" height="2" x="-56" y="41" fill="#1a1a1a" rx="1" ry="1" style="paint-order:stroke fill markers" transform="scale(-1 1)"/></svg>
